launcher/android/assets/skins/day/svg/selectOverlay.svg

<svg enable-background="new 0 0 276.33 277.33" height="277.333" viewBox="0 0 276.33 277.33" width="276.333" xmlns="http://www.w3.org/2000/svg"><path d="m53 6h170.333c25.958 0 47 21.0427 47 47v171.333c0 25.958-21.042 47-47 47h-170.333c-25.9573 0-47-21.042-47-47v-171.333c0-25.9573 21.0427-47 47-47z" fill="none" stroke="#f00" stroke-linecap="square" stroke-linejoin="bevel" stroke-width="12"/></svg>

﻿<?xml version="1.0" encoding="utf-8"?>
<!DOCTYPE svg PUBLIC "-//W3C//DTD SVG 1.1//EN" "http://www.w3.org/Graphics/SVG/1.1/DTD/svg11.dtd">
<svg xmlns="http://www.w3.org/2000/svg" xmlns:xlink="http://www.w3.org/1999/xlink" version="1.1" baseProfile="full" width="276.333" height="277.333" viewBox="0 0 276.33 277.33" enable-background="new 0 0 276.33 277.33" xml:space="preserve">
	<path fill="none" stroke-width="12" stroke-linecap="square" stroke-linejoin="bevel" stroke="#FF0000" stroke-opacity="1" d="M 53,6L 223.333,6C 249.291,6 270.333,27.0427 270.333,53L 270.333,224.333C 270.333,250.291 249.291,271.333 223.333,271.333L 53,271.333C 27.0427,271.333 6,250.291 6,224.333L 6,53C 6,27.0427 27.0427,6 53,6 Z "/>
</svg>
